packages/ui-icons/src/Basic/16/Transaction_16.svg

<svg xmlns="http://www.w3.org/2000/svg" viewBox="0 0 20 20"><path d="M11 6H6V5h5Zm1 2H6v1h6Zm-6 4h3v-1H6Zm12 2.5a3.5 3.5 0 0 1-3.5 3.5H3V2h12v9a3.49 3.49 0 0 1 3 3.49ZM12.06 17A3.48 3.48 0 0 1 14 11V3H4v14ZM17 14.49a2.47 2.47 0 0 0-.3-1.16l-2 2.16H14l-1-1.17.74-.67.63.7 1.69-1.81A2.48 2.48 0 0 0 14.5 12a2.5 2.5 0 1 0 2.5 2.5Z"/></svg>

<svg id="ready" xmlns="http://www.w3.org/2000/svg" viewBox="0 0 20 20"><title>Megaicons_work_16_1.8_cp</title><path d="M11,6H6V5h5Zm1,2H6V9h6ZM6,12H9V11H6Zm12,2.5A3.5,3.5,0,0,1,14.5,18H3V2H15V11A3.49,3.49,0,0,1,18,14.49ZM12.06,17A3.48,3.48,0,0,1,14,11V3H4V17ZM17,14.49a2.47,2.47,0,0,0-.3-1.16l-2,2.16H14l-1-1.17.74-.67.63.7,1.69-1.81A2.48,2.48,0,0,0,14.5,12a2.5,2.5,0,1,0,2.5,2.5Z"/></svg>
